src/assets/light/circleci-logo.svg

<svg height="27" viewBox="0 0 26 27" width="26" xmlns="http://www.w3.org/2000/svg"><path d="m9.65 13.45c0-1.725 1.4-3.125 3.125-3.125s3.125 1.4 3.125 3.125-1.4 3.125-3.125 3.125c-1.725.025-3.125-1.4-3.125-3.125zm3.125-13.15c-6.15 0-11.3 4.2-12.75 9.9 0 .05-.025.075-.025.125 0 .35.275.625.625.625h5.3c.25 0 .475-.15.575-.375 1.1-2.375 3.475-4.025 6.275-4.025 3.8 0 6.9 3.1 6.9 6.9s-3.1 6.9-6.9 6.9c-2.775 0-5.175-1.65-6.275-4.025-.1-.225-.325-.375-.575-.375h-5.3c-.35 0-.625.275-.625.625 0 .05 0 .075.025.125 1.45 5.7 6.6 9.9 12.75 9.9 7.275 0 13.175-5.9 13.175-13.175 0-7.25-5.9-13.125-13.175-13.125z" fill="#424242"/></svg>

<?xml version="1.0" encoding="UTF-8"?>
<svg width="26px" height="27px" viewBox="0 0 26 27" version="1.1" xmlns="http://www.w3.org/2000/svg" xmlns:xlink="http://www.w3.org/1999/xlink">
    <title>Shape</title>
    <g stroke="none" stroke-width="1" fill="none" fill-rule="evenodd">
        <g fill="#424242" fill-rule="nonzero">
            <path d="M9.65,13.45 C9.65,11.725 11.05,10.325 12.775,10.325 C14.5,10.325 15.9,11.725 15.9,13.45 C15.9,15.175 14.5,16.575 12.775,16.575 C11.05,16.6 9.65,15.175 9.65,13.45 L9.65,13.45 Z M12.775,0.3 C6.625,0.3 1.475,4.5 0.025,10.2 C0.025,10.25 0,10.275 0,10.325 C0,10.675 0.275,10.95 0.625,10.95 L5.925,10.95 C6.175,10.95 6.4,10.8 6.5,10.575 C7.6,8.2 9.975,6.55 12.775,6.55 C16.575,6.55 19.675,9.65 19.675,13.45 C19.675,17.25 16.575,20.35 12.775,20.35 C10,20.35 7.6,18.7 6.5,16.325 C6.4,16.1 6.175,15.95 5.925,15.95 L0.625,15.95 C0.275,15.95 0,16.225 0,16.575 C0,16.625 0,16.65 0.025,16.7 C1.475,22.4 6.625,26.6 12.775,26.6 C20.05,26.6 25.95,20.7 25.95,13.425 C25.95,6.175 20.05,0.3 12.775,0.3 Z"></path>
        </g>
    </g>
</svg>
